optimized/solid/pencil-alt.svg

<svg xmlns="http://www.w3.org/2000/svg" viewBox="0 0 20 20" fill="currentColor" aria-hidden="true">
  <path d="M17.4142 2.58579C16.6332 1.80474 15.3668 1.80474 14.5858 2.58579L7 10.1716V13H9.82842L17.4142 5.41421C18.1953 4.63316 18.1953 3.36683 17.4142 2.58579Z"/>
  <path fill-rule="evenodd" d="M2 6C2 4.89543 2.89543 4 4 4H8C8.55228 4 9 4.44772 9 5C9 5.55228 8.55228 6 8 6H4V16H14V12C14 11.4477 14.4477 11 15 11C15.5523 11 16 11.4477 16 12V16C16 17.1046 15.1046 18 14 18H4C2.89543 18 2 17.1046 2 16V6Z" clip-rule="evenodd"/>
</svg>

<svg xmlns="http://www.w3.org/2000/svg" viewBox="0 0 20 20" fill="currentColor" aria-hidden="true">
  <path d="M17.414 2.586a2 2 0 00-2.828 0L7 10.172V13h2.828l7.586-7.586a2 2 0 000-2.828z"/>
  <path fill-rule="evenodd" d="M2 6a2 2 0 012-2h4a1 1 0 010 2H4v10h10v-4a1 1 0 112 0v4a2 2 0 01-2 2H4a2 2 0 01-2-2V6z" clip-rule="evenodd"/>
</svg>
